X:1
T:Title
%%score { 1 | 2 }
L:1/8
M:4/4
K:Ab
V:1 treble nm="Grand Piano"
V:2 bass 
V:1
 z4 z2[Q:1/4=100] [Ec][DB] | [CA]2 [A,CE]2 [CEA]2 [Fd][Ec] | [DB]2 [DF]2 [FB]2 [FB][FA] | %3
 G2 F2 E2 GB |[M:9/8] [Ge]2 [Gd]- [Gd] [Ac]2- [Ac][Ec][DB] |[M:4/4] [CA]2 [A,CE]2 [CEA]2 [Fd][Ec] | %6
 [DB]2 [DF]2 [FB]2 [FB][FA] | [EG]2 [Ge]2 [Ge]2 Bd |[M:7/8] c2 B2 [CEA]3 |[M:1/4] cd | %10
[M:4/4] e3 c e2 [EA][EB] | [Ec]3 [Fd] [Ec]2 [EB][EA] | B2 c2 B2 EF | %13
[M:9/8] G2 [=DF]- [DF] E2- EEE |[M:4/4] [CA]2 [Ec]2 B2 EE | B2 d2 c2 BB | c3 d e2 dc | %17
[M:7/8] B2 B2 [CA]3 |] %18
V:2
 z4 z2 [A,,A,][A,,A,] | [A,,E,]2 A,,2 A,,2 [A,,A,][A,,A,] | [D,F,]2 [D,A,]2 [D,D]2 [=D,B,][D,B,] | %3
 [E,B,E]2 [F,B,=D]2 [G,B,]2 [E,B,E][E,G,E] | %4
[M:9/8] [E,B,]2 [E,E]- [E,E] [A,E]2- [A,E][A,,A,][A,,A,] | %5
[M:4/4] [A,,E,]2 A,,2 A,,2 [A,,A,][A,,A,] | [D,F,]2 [D,A,]2 [D,D]2 [=D,B,][D,B,] | %7
 [E,B,]2 [E,B,]2 [E,B,]2 [E,G,E][E,G,E] |[M:7/8] [A,E]2 [E,DE]2 A,,3 |[M:1/4] [A,E][A,B,E] | %10
[M:4/4] [A,CE]3 [A,E] [A,CE]2 [C,A,][B,,G,] | [A,,A,]3 [A,,A,] [A,,A,]2 [B,,G,][C,A,] | %12
 [E,G,E]2 [E,A,E]2 [E,G,E]2 [G,B,][A,CE] |[M:9/8] [B,E]2 [B,,A,]- [B,,A,] [E,G,]2- [E,G,]E,E, | %14
[M:4/4] [A,,E,]2 [A,,A,]2 [E,G,E]2 [E,G,][E,G,] | [E,G,E]2 [E,B,E]2 [A,E]2 [E,G,E][E,G,E] | %16
 [A,E]3 [A,B,E] [A,CA]2[K:bass] [A,B,E][A,E] |[M:7/8] [E,G,E]2 [E,D]2 [A,,E,]3 |] %18

